X:139
T:Vaggvisa.
S:Efter Elisabet Olofsdotter, Flors i Burs.
M:2/4
L:1/8
K:Em
E B B B|(B/A/) G F2|A B B A|G2 F2|
w:Bis-sen, dus-sen, läi--ten kinn! Bis-sen för a ka-kå.
w:— — — — — * — — — — — äin bul-lä.
G E E E|(F/G/) (A/G/) F2|G E E E|(F/G/) (A/G/) F2|
w:Um ja in-tä ka--ku_ far, ska ja lät-tä vag--gu_ sta
w:— — — — bul--len_ far, — — — — — * — * —
E B (B/A/) G|F2 E2|]
w:lät-tä ba--nä gra-tä.
w:— — — * — — —
